assets/sonr-icons/input-field.svg

<svg xmlns="http://www.w3.org/2000/svg" width="24" height="24" fill="none" viewBox="0 0 24 24"><path fill="#000" fill-rule="evenodd" d="M14.4 2.40002C13.8698 2.40002 13.44 2.82983 13.44 3.36002C13.44 3.89022 13.8698 4.32002 14.4 4.32002H15.84V19.68H14.4C13.8698 19.68 13.44 20.1098 13.44 20.64C13.44 21.1702 13.8698 21.6 14.4 21.6H19.2C19.7302 21.6 20.16 21.1702 20.16 20.64C20.16 20.1098 19.7302 19.68 19.2 19.68H17.76V17.76H18.565C19.0714 17.76 19.508 17.7601 19.8675 17.7307C20.247 17.6997 20.6249 17.631 20.9879 17.4463C21.5295 17.1703 21.9707 16.7287 22.2467 16.1872C22.4314 15.824 22.4997 15.4466 22.5307 15.0671C22.56 14.7075 22.56 14.271 22.56 13.7651V10.235C22.56 9.72861 22.56 9.29206 22.5307 8.93257C22.4997 8.55302 22.4309 8.17515 22.2463 7.81208C21.9703 7.27053 21.5287 6.82933 20.9871 6.55331C20.624 6.36862 20.2465 6.30028 19.8671 6.26933C19.5074 6.23999 19.0709 6.24001 18.5649 6.24002L17.76 6.24002V4.32002H19.2C19.7302 4.32002 20.16 3.89022 20.16 3.36002C20.16 2.82983 19.7302 2.40002 19.2 2.40002H14.4ZM19.7113 15.8171C19.4393 15.8393 19.0818 15.84 18.528 15.84H17.76V8.16002H18.528C19.0813 8.16002 19.4388 8.16077 19.7109 8.18297C19.9713 8.20421 20.0685 8.24024 20.1165 8.26454C20.2966 8.35644 20.4435 8.50335 20.5354 8.6834C20.5598 8.73141 20.5958 8.82845 20.6171 9.08873C20.6393 9.36075 20.64 9.71819 20.64 10.272V13.728C20.64 14.2813 20.6393 14.6388 20.6171 14.911C20.5958 15.1713 20.5598 15.2685 20.5355 15.3165C20.4436 15.4966 20.2967 15.6435 20.1166 15.7354C20.0686 15.7598 19.9716 15.7958 19.7113 15.8171Z" clip-rule="evenodd"/><path fill="#000" d="M12.96 6.24002L5.43508 6.24002C4.9291 6.24001 4.49256 6.23999 4.13295 6.26933C3.75347 6.30028 3.37525 6.36903 3.01206 6.55372C2.47051 6.82974 2.02931 7.27134 1.75329 7.81288C1.56866 8.17595 1.50028 8.55302 1.46931 8.93257C1.43997 9.29206 1.43999 9.72859 1.44 10.235V13.765C1.43999 14.2709 1.43997 14.7075 1.46931 15.0671C1.50027 15.4466 1.56901 15.8248 1.7537 16.188C2.02972 16.7295 2.47132 17.1707 3.01286 17.4467C3.37593 17.6314 3.753 17.6997 4.13255 17.7307C4.49205 17.7601 4.9286 17.76 5.43501 17.76H12.96C13.4902 17.76 13.92 17.3302 13.92 16.8C13.92 16.2698 13.4902 15.84 12.96 15.84H5.472C4.91817 15.84 4.56073 15.8393 4.28871 15.8171C4.02854 15.7958 3.93147 15.7598 3.88344 15.7355C3.70333 15.6435 3.55639 15.4966 3.46449 15.3164C3.44018 15.2685 3.40418 15.1712 3.38295 14.911C3.36075 14.6388 3.36 14.2813 3.36 13.728V10.272C3.36 9.71819 3.36075 9.36075 3.38295 9.08873C3.40418 8.82859 3.44019 8.73151 3.46456 8.68348C3.55649 8.50337 3.70346 8.35642 3.88359 8.26452C3.93155 8.24021 4.02884 8.2042 4.28906 8.18297C4.56122 8.16077 4.9187 8.16002 5.472 8.16002H12.96C13.4902 8.16002 13.92 7.73022 13.92 7.20002C13.92 6.66983 13.4902 6.24002 12.96 6.24002Z"/></svg>

<svg xmlns="http://www.w3.org/2000/svg" width="24" height="24" fill="none"><path fill="currentColor" fill-rule="evenodd" d="M14.4 2.4a.96.96 0 1 0 0 1.92h1.44v15.36H14.4a.96.96 0 1 0 0 1.92h4.8a.96.96 0 1 0 0-1.92h-1.44v-1.92h.805c.506 0 .943 0 1.302-.03.38-.03.758-.099 1.12-.284a2.9 2.9 0 0 0 1.26-1.259c.184-.363.253-.74.284-1.12.029-.36.029-.796.029-1.302v-3.53c0-.506 0-.943-.03-1.302-.03-.38-.1-.758-.284-1.12a2.9 2.9 0 0 0-1.259-1.26c-.363-.184-.74-.253-1.12-.284-.36-.029-.796-.029-1.302-.029h-.805V4.32h1.44a.96.96 0 1 0 0-1.92zm5.311 13.417c-.272.022-.63.023-1.183.023h-.768V8.16h.768c.553 0 .91 0 1.183.023.26.021.358.057.406.082.18.091.326.238.418.418.025.048.06.145.082.406.022.272.023.63.023 1.183v3.456c0 .553 0 .91-.023 1.183-.021.26-.057.357-.082.406a.96.96 0 0 1-.418.418c-.048.025-.145.06-.406.082" clip-rule="evenodd"/><path fill="currentColor" d="M12.96 6.24H5.435c-.506 0-.942 0-1.302.03-.38.03-.758.099-1.12.284a2.9 2.9 0 0 0-1.26 1.259c-.184.363-.253.74-.284 1.12-.029.36-.029.796-.029 1.302v3.53c0 .506 0 .942.03 1.302.03.38.099.758.284 1.121.276.542.717.983 1.259 1.259.363.184.74.253 1.12.284.359.03.796.029 1.302.029h7.525a.96.96 0 1 0 0-1.92H5.472c-.554 0-.911 0-1.183-.023-.26-.021-.358-.057-.406-.082a.96.96 0 0 1-.419-.419c-.024-.048-.06-.145-.081-.405a16 16 0 0 1-.023-1.183v-3.456c0-.554 0-.911.023-1.183.021-.26.057-.357.082-.406a.96.96 0 0 1 .419-.418c.048-.025.145-.06.405-.082.272-.022.63-.023 1.183-.023h7.488a.96.96 0 1 0 0-1.92"/></svg>
